lib/functional/office&editing/file-css.svg

<svg xmlns="http://www.w3.org/2000/svg" fill="none" stroke="currentColor" aria-hidden="true" viewBox="0 0 32 32"><g id="Icon-FileCss"><g clip-path="url(#clip0_12_1771)"><g id="size=md (32px)"><g id="FileCss"><path id="Vector" stroke-linecap="round" stroke-linejoin="round" stroke-width="2" d="M10 26.3125C9.52156 26.7499 8.89821 26.9948 8.25 27C6.725 27 5.5 25.6625 5.5 24C5.5 22.3375 6.725 21 8.25 21C8.89821 21.0052 9.52156 21.2501 10 21.6875"/><path id="Vector_2" stroke-linecap="round" stroke-linejoin="round" stroke-width="2" d="M14 26.5C14.5418 26.9041 15.1991 27.1232 15.875 27.125C17 27.125 18 26.75 18 25.5C18 23.5 14 24.375 14 22.5C14 21.5 14.75 20.875 15.875 20.875C16.5509 20.8768 17.2082 21.0959 17.75 21.5"/><path id="Vector_3" stroke-linecap="round" stroke-linejoin="round" stroke-width="2" d="M22 26.5C22.5418 26.9041 23.1991 27.1232 23.875 27.125C25 27.125 26 26.75 26 25.5C26 23.5 22 24.375 22 22.5C22 21.5 22.75 20.875 23.875 20.875C24.5509 20.8768 25.2082 21.0959 25.75 21.5"/><path id="Vector_4" stroke-linecap="round" stroke-linejoin="round" stroke-width="2" d="M6 16V5C6 4.73478 6.10536 4.48043 6.29289 4.29289C6.48043 4.10536 6.73478 4 7 4H19L26 11V16"/><path id="Vector_5" stroke-linecap="round" stroke-linejoin="round" stroke-width="2" d="M19 4V11H26"/></g></g></g></g><defs><clipPath id="clip0_12_1771"><rect width="32" height="32" fill="white" rx="5"/></clipPath></defs></svg>

<svg xmlns="http://www.w3.org/2000/svg" fill="none" stroke="currentColor" aria-hidden="true" viewBox="0 0 32 32"><g stroke="#101828" stroke-linecap="round" stroke-linejoin="round" stroke-width="2" clip-path="url(#a)"><path d="M10 26.313A2.625 2.625 0 0 1 8.25 27c-1.525 0-2.75-1.337-2.75-3s1.225-3 2.75-3a2.62 2.62 0 0 1 1.75.688m4 4.812a3.15 3.15 0 0 0 1.875.625C17 27.125 18 26.75 18 25.5c0-2-4-1.125-4-3 0-1 .75-1.625 1.875-1.625a3.15 3.15 0 0 1 1.875.625m4.25 5a3.15 3.15 0 0 0 1.875.625C25 27.125 26 26.75 26 25.5c0-2-4-1.125-4-3 0-1 .75-1.625 1.875-1.625a3.15 3.15 0 0 1 1.875.625M6 16V5a1 1 0 0 1 1-1h12l7 7v5"/><path d="M19 4v7h7"/></g><defs><clipPath id="a"><rect width="32" height="32" fill="#fff" rx="5"/></clipPath></defs></svg>
